X: 103
M:C|
L:1/8
K:Eb
uc2|\
(B>.)"^SEGUE"AF>D B>AF>D | E>FG>A B>cd>e |\
 =B>cG>A =E>F^C>D | C>B,=A,>B, B3 uc |
 (=B>c)(G>A) (=E>F)(^C>D) | =C>B,=A,>B, E2:|
|:uG2|\
(c>.=B)"^SEGUE"c>B c>ed>B | c>=Bc>B c>ed>B |\
 c>=Bc>d e>de>f | g>^fg>a g>fe>d |
c>=Bc>B c>ed>B | c>=Bc>B c>ed>B |\
 c>de>f g>fe>d |1 c>ed>=B c2 :|2 c2z2 [_A_B2] "D.C."|]


